X: 30457
T: Old Wheel Of Fortune, The
R: strathspey
M: 4/4
K: Amajor
|:dB|AFdF EA,CE|FDdD cDBD|AFdF EA,CE|1 FAGE D2:|2 FAGE DA||
K: Amaj
df|eAcA eAdf|eAcA B^ABf|eAcA e2 ec|d2 c2 BAAf|
eAcA eAdf|eAcA f^efg|afec Aece|d2 c2 BA||

